X: 41912
T: Waiting For Begley
R: polka
M: 2/4
K: Amajor
|:A2- AF|AB F2|EF cA|B2 AF|
A2- AF|AB F2|EC B,C/B,/|1 A,2 AF:|2 A,2 Ac||
|:B2 BA|ce fe|af ea/f/|ea/f/ ec|
B2 BA|ce fe|af ef|1 cB A2:|2 cB AG||
|:F2- FE|CE FG|A2 Ac|BG BG|
FA/F/ EC|B,A, B,A,|CE FA|1 B2 AG:|2 B2 AF||

